Catalina-light/actions/16/distribute-vertical-node.svg

<svg xmlns="http://www.w3.org/2000/svg" width="24" height="24" viewBox="0 0 24 24">
 <defs>
  <style id="current-color-scheme" type="text/css">
   .ColorScheme-Text { color:#5c616c; } .ColorScheme-Highlight { color:#5294e2; }
  </style>
 </defs>
 <path style="fill:currentColor" class="ColorScheme-Text" d="M 0.49414062 0 A 0.49975 0.49977 0 0 0 0.13085938 0.83007812 C 1.0374194 1.8880781 2.680775 2.3994 4.609375 2.8125 C 5.975675 3.1052 7.4898469 3.3304937 8.9980469 3.5585938 L 8.9980469 6.0039062 L 11.003906 6.0039062 L 11.003906 9.0039062 L 8.9980469 9.0039062 L 8.9980469 10.443359 C 8.9940469 10.444015 8.9903271 10.444612 8.9863281 10.445312 C 6.8769281 10.791723 4.7581781 11.244096 3.0800781 12.128906 C 1.4017781 13.013716 0.14861875 14.412044 0.01171875 16.464844 C -0.04226825 17.279884 0.25956187 18.005716 0.79492188 18.541016 C 1.3302919 19.076246 2.0696656 19.447021 2.9472656 19.738281 C 4.5662656 20.275511 6.6939469 20.537437 8.9980469 20.748047 L 8.9980469 23 L 11.003906 23 L 11.003906 23.996094 L 11.503906 23.996094 L 12.003906 23.996094 L 12.003906 23.496094 L 12.003906 23 L 13.996094 23 L 13.996094 21.203125 C 17.699594 21.564965 21.239597 22.093619 23.216797 23.412109 A 0.49998181 0.49999181 0 0 0 23.771484 22.580078 C 22.681584 21.853228 21.277356 21.3632 19.722656 21 L 23.994141 21 L 23.994141 20 L 21.494141 20 L 13.996094 20 L 13.996094 18.001953 L 12.003906 18.001953 L 12.003906 14.001953 L 13.996094 14.001953 L 13.996094 12.001953 L 21.494141 12.001953 L 23.994141 12.001953 L 23.994141 11.001953 L 21.494141 11.001953 L 13.996094 11.001953 L 13.996094 10.662109 C 14.350494 10.594189 14.70412 10.526336 15.03125 10.447266 C 15.88044 10.241946 16.629575 9.9939687 17.234375 9.6367188 C 17.839225 9.2794787 18.319575 8.7820469 18.484375 8.1230469 C 18.694375 7.2860469 18.592563 6.5099063 18.226562 5.8789062 C 17.859562 5.2479062 17.262969 4.7731781 16.542969 4.3925781 C 16.269969 4.2480781 15.960391 4.1255062 15.650391 4.0039062 L 21.494141 4.0039062 L 23.994141 4.0039062 L 23.994141 3.0039062 L 13.996094 3.0039062 L 13.996094 1.0058594 L 12.003906 1.0058594 L 12.003906 0.50585938 L 12.003906 0.005859375 L 11.003906 0.005859375 L 11.003906 0.50585938 L 11.003906 1.0058594 L 8.9980469 1.0058594 L 8.9980469 2.546875 C 7.5391469 2.325275 6.0918594 2.1067844 4.8183594 1.8339844 C 2.9566594 1.4351844 1.483025 0.8709175 0.890625 0.1796875 A 0.49975 0.49977 0 0 0 0.49414062 0 z M 21.494141 4.0039062 L 19.962891 6.0039062 L 20.994141 6.0039062 L 20.994141 9.0039062 L 19.994141 9.0039062 L 21.494141 11.001953 L 22.994141 9.0039062 L 21.994141 9.0039062 L 21.994141 6.0039062 L 22.962891 6.0039062 L 21.494141 4.0039062 z M 21.494141 12.001953 L 19.962891 14.001953 L 20.994141 14.001953 L 20.994141 18.001953 L 19.994141 18.001953 L 21.494141 20 L 22.994141 18.001953 L 21.994141 18.001953 L 21.994141 14.001953 L 22.962891 14.001953 L 21.494141 12.001953 z M 13.996094 4.5136719 C 14.794924 4.7326719 15.513572 4.9801337 16.076172 5.2773438 C 16.692022 5.6027438 17.124728 5.9730794 17.361328 6.3808594 C 17.597968 6.7886494 17.672932 7.2433994 17.513672 7.8808594 C 17.428692 8.2214494 17.189252 8.5040138 16.726562 8.7773438 C 16.263783 9.0506638 15.594875 9.2836125 14.796875 9.4765625 C 14.548215 9.5366825 14.267574 9.5887381 13.996094 9.6425781 L 13.996094 9.0039062 L 12.003906 9.0039062 L 12.003906 6.0039062 L 13.996094 6.0039062 L 13.996094 4.5136719 z M 8.9980469 11.458984 L 8.9980469 14.001953 L 11.003906 14.001953 L 11.003906 18.001953 L 8.9980469 18.001953 L 8.9980469 19.742188 C 6.7497469 19.533188 4.7022188 19.269016 3.2617188 18.791016 C 2.4702187 18.528016 1.8671 18.200984 1.5 17.833984 C 1.1329 17.466984 0.97262563 17.08825 1.0097656 16.53125 C 1.1226656 14.83625 2.055375 13.797719 3.546875 13.011719 C 5.001875 12.244719 6.9757469 11.796984 8.9980469 11.458984 z"/>
</svg>

<svg width="24" height="24" viewBox="0 0 24 24" xmlns="http://www.w3.org/2000/svg">
<defs>
<style id="current-color-scheme" type="text/css">.ColorScheme-Text { color:#5c616c; } .ColorScheme-Highlight { color:#5294e2; }</style>
</defs>
<path class="ColorScheme-Text" d="m0.49414 0a0.49975 0.49977 0 0 0-0.36328 0.83008c0.90656 1.058 2.5499 1.5693 4.4785 1.9824 1.3663 0.2927 2.8805 0.51799 4.3887 0.74609v2.4453h2.0059v3h-2.0059v1.4395c-4e-3 6.56e-4 -0.0077198 0.001253-0.011719 0.001953-2.1094 0.34641-4.2282 0.79878-5.9062 1.6836-1.6783 0.88481-2.9315 2.2831-3.0684 4.3359-0.053987 0.81504 0.24784 1.5409 0.7832 2.0762 0.53537 0.53523 1.2747 0.906 2.1523 1.1973 1.619 0.53723 3.7467 0.79916 6.0508 1.0098v2.252h2.0059v0.99609h1v-0.99609h1.9922v-1.7969c3.7035 0.36184 7.2435 0.89049 9.2207 2.209a0.49998 0.49999 0 0 0 0.55469-0.83203c-1.0899-0.72685-2.4941-1.2169-4.0488-1.5801h4.2715v-1h-9.998v-1.998h-1.9922v-4h1.9922v-2h9.998v-1h-9.998v-0.33984c0.3544-0.06792 0.70803-0.13577 1.0352-0.21484 0.84919-0.20532 1.5983-0.4533 2.2031-0.81055 0.60485-0.35724 1.0852-0.85467 1.25-1.5137 0.21-0.837 0.10819-1.6131-0.25781-2.2441-0.367-0.631-0.96359-1.1057-1.6836-1.4863-0.273-0.1445-0.58258-0.26707-0.89258-0.38867h8.3438v-1h-9.998v-1.998h-1.9922v-1h-1v1h-2.0059v1.541c-1.4589-0.2216-2.9062-0.44009-4.1797-0.71289-1.8617-0.3988-3.3353-0.96307-3.9277-1.6543a0.49975 0.49977 0 0 0-0.39648-0.17969zm21 4.0039-1.5312 2h1.0312v3h-1l1.5 1.998 1.5-1.998h-1v-3h0.96875l-1.4688-2zm0 7.998-1.5312 2h1.0312v4h-1l1.5 1.998 1.5-1.998h-1v-4h0.96875l-1.4688-2zm-7.498-7.4883c0.79883 0.219 1.5175 0.46646 2.0801 0.76367 0.61585 0.3254 1.0486 0.69574 1.2852 1.1035 0.23664 0.40779 0.3116 0.86254 0.15234 1.5-0.08498 0.34059-0.32442 0.62315-0.78711 0.89648-0.46278 0.27332-1.1317 0.50627-1.9297 0.69922-0.24866 0.06012-0.5293 0.11218-0.80078 0.16602v-0.63867h-1.9922v-3h1.9922v-1.4902zm-4.998 6.9453v2.543h2.0059v4h-2.0059v1.7402c-2.2483-0.209-4.2958-0.47317-5.7363-0.95117-0.7915-0.263-1.3946-0.59003-1.7617-0.95703s-0.52737-0.74573-0.49023-1.3027c0.1129-1.695 1.0456-2.7335 2.5371-3.5195 1.455-0.767 3.4289-1.2147 5.4512-1.5527z" fill="currentColor"/>
</svg>
